X:44
T:Premier Divertissement - Jupiter modérément 
R:
C:Forqueray
H:
N:
B:
O:France
A:
Z:Eric Forgeot - http://anamnese.online.fr
M:4/4
L:1/8
Q:1/4=147
K:Db treble
K:Bbm treble
V:1
EDC |: B,DCD FDCB, | =A,F,=A,C FEDC | DB,DF BdcB | =AB=AG FGFE | 
DFBd fedc | EGBe gfed | cB=AG Fcfc | dedc BEDC | 
B,DCD FDCB, | =A,F,=A,C FEDC | DB,DF BdcB | =AB=AG FGFE |
DFBd fedc | EGBe gfed | cB=AG FEDC | DEDC B,EDC | 
V:2
K:Bbm bass
%%MIDI transpose -12
z3 |: B4 d2e2 | f4 b2f2 | B4 d2e2 | f2 F2 =Agfe |
d4



